X:1
T:The World Was Hushed in Silence Deep
T:The World Was Hushed in Silence Deep
T:R. Menthal
T:Susan Ketcham Bourne, 1891
T:Public Domain Courtesy of the Cyber Hymnal™
T:Public Domain Courtesy of the Cyber Hymnal™
C:R. Menthal
Z:Public Domain
Z:Courtesy of the Cyber Hymnal™
%%score ( 1 2 ) ( 3 4 )
L:1/8
Q:1/4=80
M:6/8
K:Bb
V:1 treble 
V:2 treble 
V:3 bass 
V:4 bass 
V:1
 [DF] | (dB)D [DF]2 [DF] | (dB)D [DF]2 F | (fe)[Fd] [Fc]2 F | (FG)[=EG] F2 [_EF] | %5
w: 1.~The|world * was hushed in|si- * lence deep, The|wait- * ing shep- herds|watched * their sheep; When|
w: 2.~A|wond- * rous star was|sent * to shine, And|show * the world the|Babe * di- vine; And|
w: 3.~’Twas|Love * that brought Him|here * to earth, ’Twas|Love * that planned His|hum- * ble birth; ’Tis|
 (dB)D [DF]2 [DF] | (dB)D [DF]2 F | (BA)[EG] [DF]2 [Fd] | [Ec]2 [EA] [DB]3 | [Ge]3 [GB]2 [_Gc] | %10
w: came * the joy- ful|an- * gel throng, And|list- * ening ag- es|caught their song.|O glor- ious|
w: from * the east the|wise * men came, With|roy- * al hon- ors|to His name.|O guid- ing|
w: Love * that draws us|to * Him now, And|bids * us at His|feet to bow.|O ho- ly|
 [Fd]6 | [=Ed]3 (dc)[EB] | [Fd]3 [Fc]3 | [Fc]3 [^Fd]2 [FA] | [GB]3- [GB]2 [FB] | ([=EB]3- BA)[EB] | %16
w: song!|O bless- * èd|sto- ry!|It floats a-|long * from|realms * * *|
w: star,|so bright- * ly|beam- ing!|From ag- es|far * thy|ra- * * *|
w: Love!|in full- * est|mea- sure,|We bring to|Thee * our|rich- * * *|
 [Fd]3 [Fc]2 [EF] | (dB)D [DF]2 [DB] | B2 [FB] [Ee]2 [Ge] | (ed)[Gc] [FB]2 [Fd] | %20
w: of glo- ry.|Each * Christ- mas day|it comes a- gain—|“On * earth be peace!|
w: diance stream- ing,|Still * draws the na-|tions to His feet,|The * Babe of Beth-|
w: est trea- sure,|To * grace Thy glow-|ing di- a- dem,|O * bless- èd Babe|
"^rit." (dF)[Ec] [DB]2 |] %21
w: Good * will to|
w: le- * hem to|
w: of * Beth- le-|
V:2
 x | D2 D x3 | D2 D x F x | F2 x2 F x | D2 F2 x2 | D2 D x3 | D2 D x F x | E2 x4 | x6 | x6 | x6 | %11
 x3 =E2 x | x6 | x6 | x6 | x3 E2 x | x6 | D2 D x3 | (DE) x4 | G2 x4 | F2 x3 |] %21
V:3
 [B,,F,] | [B,,F,]2 [B,,F,] [B,,F,]2 [B,,F,] | [B,,F,]2 [B,,F,] [B,,F,]2 [D,B,] | %3
 [C,A,]2 [B,,B,] [A,,C]2 [D,A,] | [B,,B,]2 [C,B,] [F,A,]2 [F,A,] | %5
 [B,,B,]2 [B,,F,] [B,,F,]2 [B,,F,] | [B,,F,]2 [B,,F,] [B,,F,]2 [D,B,] | %7
 [E,G,]2 [E,B,] [F,B,]2 [F,B,] | [F,A,]2 [F,C] B,3 | [E,B,]3 [E,B,]2 [E,B,] | [B,,B,]6 | %11
 [C,B,]3 [C,G,]2 [C,C] | [F,B,]3 [F,A,]3 | A,3 [D,A,]2 [D,D] | [G,D]3- [G,D]2 [G,D] | %15
 [C,C]3- [C,C]2 [C,C] | [F,B,]3 [F,A,]2 [F,A,] | [B,,B,]2 [B,,F,] (F,B,)[B,,B,] | %18
 B,2 [D,_A,] [E,G,]2 [E,B,] | (CF)[E,E] [F,D]2 [F,B,] | (F,D)[F,A,] [B,,B,]2 |] %21
V:4
 x | x6 | x6 | x6 | x6 | x6 | x6 | x6 | x3 B,3 | x6 | x6 | x6 | x6 | F,2 E, x3 | x6 | x6 | x6 | %17
 x3 B,,2 x | (B,,C,) x4 | E,2 x4 | F,2 x3 |] %21

